X:1
T:Psalm 6
T:V 1
L:1/4
M:16/4
I:linebreak $
K:G
V:1 treble nm="Pipe Organ" snm="Org."
V:1
 E2 E E D2 D2 E G2 F G3 z |$[M:12/4] B2 B d c B A2 A3 z |$[M:10/4] D2 E G F E B3 z |$ %3
w: Wil my, o HEER, nie str- a- f nie,|wys my in toorn nie af nie,|sien my ge- na- dig aan;|
[M:12/4] d2 d c B A G2 E3 z |$ A2 A G F E G2 D3 z |$ E2 B B A2 F2 E4 |] %6
w: laat in my te- ë- spoe- de|'n al- te streng- e roe- de|my nie met gram- skap slaan!|

